src/flashlight.svg

<?xml version="1.0" encoding="UTF-8" standalone="no"?>
<svg width="20px" height="20px" viewBox="0 0 20 20" version="1.1" xmlns="http://www.w3.org/2000/svg" xmlns:xlink="http://www.w3.org/1999/xlink">
    <!-- Generator: Sketch 3.7.2 (28276) - http://www.bohemiancoding.com/sketch -->
    <title>flashlight</title>
    <desc>Created with Sketch.</desc>
    <defs></defs>
    <g id="Page-1" stroke="none" stroke-width="1" fill="none" fill-rule="evenodd">
        <g id="flashlight" fill="#000000">
            <path d="M11,8 C11,7.44771525 10.5522847,7 10,7 C9.44771525,7 9,7.44771525 9,8 L9,9 C9,9.55228475 9.44771525,10 10,10 C10.5522847,10 11,9.55228475 11,9 L11,8 Z M13,7 L13,17.9941413 C13,19.1019465 12.1017394,20 11.0020869,20 L8.99791312,20 C7.89449617,20 7,19.1029399 7,17.9941413 L7,7 L5,5 L5,3 L15,3 L15,5 L13,7 Z M5,0 L15,0 L15,2 L5,2 L5,0 Z" id="Combined-Shape"></path>
        </g>
    </g>
</svg>

<svg xmlns="http://www.w3.org/2000/svg" viewBox="0 0 20 20"><path d="M13 7v11a2 2 0 0 1-2 2H9a2 2 0 0 1-2-2V7L5 5V3h10v2l-2 2zM9 8v1a1 1 0 1 0 2 0V8a1 1 0 0 0-2 0zM5 0h10v2H5V0z"/></svg>
